ip-outline.svg

<svg fill="currentColor" viewBox="0 0 24 24"><path d="M19 5v14H5V5zm0-2H5c-1.1 0-2 .9-2 2v14c0 1.1.9 2 2 2h14c1.1 0 2-.9 2-2V5c0-1.1-.9-2-2-2M9 7H7v10h2zm6 0h-4v10h2v-4h2c1.1 0 2-.9 2-2V9c0-1.1-.9-2-2-2m0 4h-2V9h2z"/></svg>

<svg  viewBox="0 0 24 24" fill="currentColor"><path  d="M19 5V19H5V5H19M19 3H5C3.9 3 3 3.9 3 5V19C3 20.1 3.9 21 5 21H19C20.1 21 21 20.1 21 19V5C21 3.9 20.1 3 19 3M9 7H7V17H9V7M15 7H11V17H13V13H15C16.1 13 17 12.1 17 11V9C17 7.9 16.1 7 15 7M15 11H13V9H15V11Z"/></svg>
